packages/icons/src/svg/tdc-positive.svg

<svg xmlns="http://www.w3.org/2000/svg" viewBox="0 0 16 16">
  <g fill-rule="evenodd">
    <path d="M6.7064 4.59L6.6864 4.589C6.6234 4.586 6.5634 4.583 6.5074 4.58 6.2184 4.565 5.9854 4.542 5.8144 4.515L4.3064 8.452C4.4424 8.468 4.6094 8.482 4.8064 8.492 4.8674 8.496 4.9314 8.499 4.9984 8.502 5.6604 8.53 6.7384 8.577 7.2494 9.344L8.6434 5.708C8.5704 4.749 7.7234 4.634 6.7064 4.59M11.4066 6.3908C10.6206 5.7448 9.9126 5.2638 9.2186 5.9278L7.8256 9.5648C8.1426 9.4838 8.4816 9.5118 8.8366 9.6478 9.3226 9.8328 9.7496 10.1848 10.0616 10.4418 10.1146 10.4858 10.1646 10.5258 10.2116 10.5638 10.3656 10.6868 10.4996 10.7888 10.6116 10.8688L12.1196 6.9308C11.9746 6.8368 11.7876 6.6988 11.5606 6.5168 11.5116 6.4778 11.4606 6.4348 11.4066 6.3908"/>
    <path d="M14.4413,8.8068 C14.0703,11.7348 11.7553,14.0548 8.8293,14.4318 C8.7473,14.8168 8.4063,15.1048 7.9973,15.1048 C7.5893,15.1048 7.2493,14.8178 7.1663,14.4338 C4.2363,14.0638 1.9153,11.7448 1.5403,8.8158 C1.1383,8.7478 0.8323,8.3998 0.8323,7.9788 C0.8323,7.5568 1.1383,7.2078 1.5413,7.1408 C1.9193,4.2158 4.2383,1.9018 7.1653,1.5308 C7.2383,1.1358 7.5843,0.8368 8.0013,0.8368 C8.4183,0.8368 8.7643,1.1378 8.8373,1.5338 C11.7563,1.9128 14.0663,4.2278 14.4403,7.1498 C14.8183,7.2358 15.1013,7.5738 15.1013,7.9788 C15.1013,8.3818 14.8193,8.7198 14.4413,8.8068 M8.0003,-0.0002 C3.5883,-0.0002 0.0003,3.5888 0.0003,7.9998 C0.0003,12.4108 3.5883,15.9998 8.0003,15.9998 C12.4113,15.9998 16.0003,12.4108 16.0003,7.9998 C16.0003,3.5888 12.4113,-0.0002 8.0003,-0.0002"/>
    <path d="M12.7933,6.8957 L11.0583,11.4227 C11.0143,11.5387 10.9063,11.6167 10.7823,11.6217 C10.7773,11.6217 10.6943,11.6177 10.6343,11.5937 C10.4753,11.5337 10.2113,11.3537 9.8263,11.0437 C9.7773,11.0047 9.7273,10.9637 9.6733,10.9187 C9.1453,10.4857 8.4473,9.9097 7.7723,10.2427 L7.5403,10.3517 C7.5403,10.3517 6.9193,10.1207 6.9203,10.1187 C6.9193,10.1207 6.8443,9.9057 6.8443,9.9057 C6.5973,9.1887 5.6593,9.1477 4.9723,9.1177 C4.9723,9.1177 4.8293,9.1117 4.7723,9.1087 C3.8393,9.0557 3.7373,8.9577 3.6753,8.8977 C3.5863,8.8117 3.5583,8.6817 3.6023,8.5667 L5.3373,4.0397 C5.3743,3.9417 5.4573,3.8707 5.5583,3.8487 C5.5953,3.8397 5.6393,3.8477 5.7453,3.8687 C5.8993,3.8967 6.1573,3.9437 6.5413,3.9647 C6.5903,3.9677 6.6423,3.9697 6.6953,3.9727 L6.7333,3.9737 C7.4623,4.0057 8.8003,4.0647 9.1693,5.1967 C10.1993,4.6007 11.2333,5.4517 11.7973,5.9157 L11.8113,5.9257 C11.8583,5.9647 11.9033,6.0007 11.9463,6.0367 C12.2463,6.2767 12.4703,6.4147 12.6043,6.4967 C12.6963,6.5517 12.7343,6.5757 12.7563,6.6067 C12.8163,6.6907 12.8303,6.7987 12.7933,6.8957 M10.6203,12.4577 L10.6113,12.4577 C10.5713,12.4577 10.4563,12.4507 10.3513,12.4097 C10.1583,12.3337 9.8853,12.1497 9.4663,11.8087 C9.4173,11.7687 9.3653,11.7257 9.3113,11.6807 C9.2573,11.6357 9.2023,11.5877 9.1463,11.5397 C8.5853,11.0547 8.2083,10.7887 7.7133,11.1737 L7.5813,11.2767 L6.2103,10.7617 L6.1983,10.5697 C6.1663,10.0577 5.8073,9.9597 4.9613,9.9257 C4.9053,9.9237 4.8513,9.9217 4.7973,9.9187 C4.7973,9.9187 4.6523,9.9127 4.5943,9.9087 C3.6283,9.8487 3.4463,9.7417 3.3093,9.6077 C3.1913,9.4927 3.1893,9.3037 3.3033,9.1857 C3.4183,9.0677 3.6073,9.0657 3.7253,9.1807 L3.7323,9.1877 C3.7423,9.1937 3.8783,9.2667 4.6313,9.3127 C4.6873,9.3167 4.8263,9.3237 4.8273,9.3237 C4.8783,9.3257 4.9323,9.3287 4.9853,9.3307 C5.5953,9.3547 6.5893,9.3947 6.7693,10.3347 L7.4873,10.6037 C8.3413,10.0567 9.0553,10.6727 9.5353,11.0877 C9.5893,11.1337 9.6423,11.1797 9.6933,11.2227 C9.7463,11.2657 9.7953,11.3077 9.8423,11.3457 C10.3063,11.7227 10.4963,11.8267 10.5673,11.8537 C10.5763,11.8567 10.6013,11.8607 10.6153,11.8617 C10.7713,11.8657 10.8983,11.9897 10.9053,12.1467 C10.9123,12.3117 10.7853,12.4507 10.6203,12.4577 M13.3993,7.9787 C13.3993,7.6337 13.6043,7.3387 13.8983,7.2047 C13.5483,4.5367 11.4283,2.4177 8.7583,2.0737 C8.6173,2.3487 8.3313,2.5387 8.0013,2.5387 C7.6683,2.5387 7.3823,2.3477 7.2413,2.0707 C4.5553,2.4087 2.4203,4.5407 2.0793,7.2257 C2.3493,7.3687 2.5333,7.6517 2.5333,7.9787 C2.5333,8.3047 2.3483,8.5887 2.0783,8.7317 C2.4163,11.4157 4.5453,13.5487 7.2283,13.8927 C7.3353,13.6667 7.5373,13.4957 7.7833,13.4317 C8.0313,13.3747 8.2193,13.4337 8.2193,13.4337 C8.4613,13.4987 8.6603,13.6677 8.7663,13.8907 C11.4353,13.5417 13.5533,11.4217 13.8993,8.7517 C13.6053,8.6187 13.3993,8.3227 13.3993,7.9787"/>
    <path fill-rule="nonzero" d="M44.8963,14.6367 C44.7773,14.3877 44.5543,14.1977 44.2823,14.1247 C44.2823,14.1247 44.0723,14.0577 43.7943,14.1227 C43.5183,14.1947 43.2913,14.3857 43.1723,14.6397 C40.1643,14.2537 37.7763,11.8627 37.3973,8.8517 C37.7003,8.6927 37.9073,8.3737 37.9073,8.0077 C37.9073,7.6417 37.7013,7.3247 37.3983,7.1637 C37.7813,4.1527 40.1743,1.7617 43.1873,1.3827 C43.3443,1.6947 43.6663,1.9077 44.0383,1.9077 C44.4093,1.9077 44.7303,1.6957 44.8883,1.3857 C47.8813,1.7737 50.2593,4.1477 50.6513,7.1407 C50.3213,7.2897 50.0923,7.6217 50.0923,8.0077 C50.0923,8.3937 50.3223,8.7257 50.6523,8.8747 C50.2643,11.8687 47.8893,14.2457 44.8963,14.6367 M51.2593,7.0777 C50.8403,3.8027 48.2493,1.2067 44.9753,0.7817 C44.8943,0.3367 44.5063,-0.0003 44.0383,-0.0003 C43.5713,-0.0003 43.1843,0.3347 43.1013,0.7787 C39.8193,1.1937 37.2183,3.7887 36.7943,7.0687 C36.3433,7.1437 36.0003,7.5347 36.0003,8.0077 C36.0003,8.4797 36.3433,8.8697 36.7933,8.9477 C37.2143,12.2317 39.8163,14.8307 43.1033,15.2457 C43.1953,15.6757 43.5773,15.9977 44.0343,15.9977 C44.4933,15.9977 44.8753,15.6747 44.9673,15.2437 C48.2483,14.8217 50.8443,12.2197 51.2603,8.9367 C51.6843,8.8387 52.0003,8.4607 52.0003,8.0077 C52.0003,7.5537 51.6833,7.1747 51.2593,7.0777"/>
  </g>
</svg>

<svg xmlns="http://www.w3.org/2000/svg" viewBox="0 0 16 16">
	<g fill-rule="evenodd">
		<path d="M6.706 4.59l-.02-.001a30.435 30.435 0 0 1-.179-.009 6.925 6.925 0 0 1-.693-.065L4.306 8.452c.136.016.303.03.5.04l.192.01c.662.028 1.74.075 2.251.842l1.394-3.636c-.073-.959-.92-1.074-1.937-1.118m4.7 1.8c-.785-.645-1.493-1.126-2.187-.462L7.826 9.565c.317-.081.656-.053 1.01.083.487.185.914.537 1.226.794l.15.122c.154.123.288.225.4.305L12.12 6.93a7.245 7.245 0 0 1-.56-.414l-.153-.126"/>
		<path d="M14.441 8.807a6.506 6.506 0 0 1-5.612 5.625.85.85 0 0 1-1.663.002A6.505 6.505 0 0 1 1.54 8.816a.85.85 0 0 1 .001-1.675 6.506 6.506 0 0 1 5.624-5.61.85.85 0 0 1 1.672.003A6.505 6.505 0 0 1 14.44 7.15a.85.85 0 0 1 .001 1.657M8.001 0C3.587 0 0 3.589 0 8c0 4.41 3.587 8 8 8 4.41 0 8-3.59 8-8 0-4.411-3.59-8-8-8"/>
		<path d="M12.793 6.896l-1.735 4.527a.308.308 0 0 1-.276.199.521.521 0 0 1-.148-.028c-.159-.06-.423-.24-.808-.55a8.766 8.766 0 0 1-.153-.125c-.528-.433-1.226-1.01-1.9-.676l-.233.109s-.62-.231-.62-.233l-.076-.213c-.247-.717-1.185-.758-1.872-.788 0 0-.143-.006-.2-.01-.933-.052-1.035-.15-1.097-.21a.307.307 0 0 1-.073-.331L5.337 4.04a.305.305 0 0 1 .221-.191c.037-.01.081-.001.187.02.154.028.412.075.796.096l.154.008h.038c.73.033 2.067.092 2.436 1.224 1.03-.596 2.064.255 2.628.719l.014.01.135.11c.3.24.524.379.658.46.092.056.13.08.152.11a.31.31 0 0 1 .037.29m-2.173 5.562h-.009a.79.79 0 0 1-.26-.048c-.193-.076-.466-.26-.885-.601l-.155-.128-.165-.141c-.56-.485-.938-.751-1.433-.366l-.132.103-1.37-.515-.013-.192c-.032-.512-.39-.61-1.237-.644a8.282 8.282 0 0 1-.164-.007s-.145-.006-.203-.01c-.966-.06-1.148-.167-1.285-.301a.298.298 0 0 1 .416-.427l.007.007c.01.006.146.079.9.125.055.004.194.01.195.01l.158.008c.61.024 1.604.064 1.784 1.004l.718.269c.854-.547 1.568.069 2.048.484l.158.135c.053.043.102.085.15.123.463.377.653.48.724.508a.282.282 0 0 0 .048.008.298.298 0 0 1 .005.596m2.78-4.48a.85.85 0 0 1 .498-.773 5.97 5.97 0 0 0-5.14-5.131.852.852 0 0 1-1.517-.003A5.97 5.97 0 0 0 2.08 7.226a.851.851 0 0 1 0 1.506 5.97 5.97 0 0 0 5.15 5.16.853.853 0 0 1 .554-.46.908.908 0 0 1 .436.002.852.852 0 0 1 .547.457A5.971 5.971 0 0 0 13.9 8.75a.85.85 0 0 1-.5-.772"/>
		<path fill-rule="nonzero" d="M44.896 14.637a.957.957 0 0 0-.614-.512s-.21-.067-.488-.002a.952.952 0 0 0-.622.517 6.695 6.695 0 0 1-5.775-5.788.953.953 0 0 0 .001-1.688 6.694 6.694 0 0 1 5.79-5.781.952.952 0 0 0 1.7.003 6.697 6.697 0 0 1 5.763 5.755.95.95 0 0 0 .001 1.734 6.695 6.695 0 0 1-5.756 5.762m6.363-7.56A7.295 7.295 0 0 0 44.975.783.953.953 0 0 0 43.101.78a7.294 7.294 0 0 0-6.307 6.29.95.95 0 0 0-.794.939c0 .472.343.862.793.94a7.294 7.294 0 0 0 6.31 6.298.952.952 0 0 0 1.864-.002 7.294 7.294 0 0 0 6.293-6.307.954.954 0 0 0 0-1.86"/>
	</g>
</svg>
